X:376
T: Pan ge
N: C1411
O: China, Shaanxi, Shiquan
S: I, 85]
R: Xiaodiao. Chang huahui]
M: 2/4
L: 1/16
K: G
E2EGB4 | ABAGE4 | B2AGA4B4
B2G2A2B2 | G2E2G4 | G2GBA2G2 | E8
d2A2B4 | ABAGE4 | B2AGA4B4
G2B2A2G2 | G2E2G4 | G2GBA2G2 | E8

